X:20
T:An Léimras
R:Reel
D:Brighde Chaimbeul: The Reeling (2018)
Z:Gwen 2019-08-04
M:2/2
Q:1/2=82
K:Eb
|: E2ED EFED | C2FE FAGF | DEEC B,2EB, | CFFE FAGF |
  B,EED EFED | C2FE FAGF | DEEC B,EEB, | GAGF E2ED :|
|: E2GE BEGc | BGFE DEED | E2GE BEGc | BGFE DB,DF |
   E2GE BEGc | BGFE DFFF | GBBB Gccc | BGF/G/A GEED :|

